assets/symbols/mulberry/sparkler.svg

<svg height="850.394" viewBox="0 0 850.394 850.394" width="850.394" xmlns="http://www.w3.org/2000/svg"><path d="m423.33 554.97a12.95 12.95 0 0 1 -8.5-3.79 13.025 13.025 0 0 1 -3.81-9.21v-78.64c.46.01.92.01 1.38.01 8.36 0 16.59-.59 24.64-1.729v80.359c0 7.19-5.83 13.021-13.01 13.021-.23-.001-.47-.011-.7-.021z" fill="#7a7878"/><path d="m437.04 276.82v184.79a175.696 175.696 0 0 1 -24.64 1.729c-.46 0-.92 0-1.38-.01v-186.509c0-7.18 5.82-13.01 13.01-13.01a13.007 13.007 0 0 1 13.01 13.01z" fill="#7a7878"/><path d="m538.34 167.5c20.08 20.87 35.021 46.72 42.78 75.51 3.92 14.54 6.01 29.83 6.01 45.6 0 5.32-.24 10.57-.7 15.77-2.76 30.86-13.55 59.42-30.26 83.56a175.58 175.58 0 0 1 -48.68 47.28c-20.84 13.55-44.75 22.771-70.45 26.391v-184.791c0-3.59-1.46-6.84-3.81-9.2a13.003 13.003 0 0 0 -9.201-3.81c-7.19 0-13.01 5.83-13.01 13.01v114.99h-1.05c-5.44 20.75-16.83 44.53-39.66 66.42-32.19-7.95-60.86-24.841-83.23-47.871-24.21-24.92-41.06-57.02-47.02-92.82-1.57-9.41-2.39-19.07-2.39-28.93 0-13 1.42-25.66 4.11-37.85 8.12-36.76 27.81-69.17 55.06-93.21a174.483 174.483 0 0 1 53.26-32.23c19.35-7.39 40.35-11.44 62.3-11.44 7.29 0 14.47.45 21.52 1.31 19.98 2.46 38.91 8.28 56.21 16.89a174.938 174.938 0 0 1 48.211 35.421z" fill="#fbee34"/><g fill="none"><g stroke="#231f20"><path d="m434.7 238.02s-2.09-62.47 55.43-105.94c16.64-12.57 38.271-23.56 66.39-30.98m-102.99 150s17.12-59.8 84.81-83.6c19.79-6.96 43.91-10.84 73.19-9.25m-144.6 105.27s46.88-37.85 114.19-20.51c21.09 5.42 44.18 16.27 68.47 35.39m-181.76 8.04s58.57-22.52 118.6 17.94c17.21 11.59 34.54 28.37 50.65 52.34m-172.75-56.43s65.67 14.49 91.84 87.65c6.36 17.77 10.38 39 10.57 64.33m-119.75-136.98s62.16 36.39 60.5 119.93c-.34 16.79-3.26 35.48-9.771 56.17m-87.749-99.58c-5.44 20.75-16.83 44.53-39.66 66.42-13.03 12.5-29.78 24.38-51.28 34.739m80.22-179.659s-18.39 79.07-112.17 97.05c-12.3 2.36-25.91 3.67-40.94 3.61m139.11-112.4s-59.41 53.13-145.19 15.97c-12.16-5.26-24.85-12.34-37.98-21.64m181.13-17.17s-71.72 31.8-141.43-27.97c-10.51-9.02-20.98-20.11-31.14-33.71m176.93 42s-70.75-18.84-90.73-101.5c-3.83-15.8-5.79-33.95-5.05-54.74m113.75 142s-59.13-38.12-55.44-119.49c.79-17.52 4.49-37.05 12.32-58.62m56.23 170.25s-25.33-59.35 15.27-121.76c10.92-16.78 26.6-33.79 48.83-49.92" stroke-dasharray="19.836" stroke-width="13.224"/><path d="m423.33 551.46v231.63m13.71-321.48v80.359c0 7.19-5.83 13.021-13.01 13.021-.23 0-.47-.01-.7-.021a12.95 12.95 0 0 1 -8.5-3.79 13.025 13.025 0 0 1 -3.81-9.21v-265.149c0-7.18 5.82-13.01 13.01-13.01a13.007 13.007 0 0 1 13.011 13.01v184.79z" stroke-width="14"/><g stroke-linecap="round" stroke-linejoin="round" stroke-width="6.612"><path d="m625.8 92.53v60.76m-26.7-30.52h53.55m-42.28 14.68 15.42-14.66.01-.01.01-.01 15.57-14.8"/><path d="m641.05 137.31-15.25-14.5-.01-.02-.03-.02-15.71-14.94m.33 320.21v30.5m0-60.76v30.25m.01 0h26.83m-53.54 0h26.7m-15.43 14.68 15.41-14.65.02-.02v-.01h.01l15.56-14.8"/><path d="m625.62 442.57-15.24-14.49-.02-.02-.03-.03-15.71-14.94m-360.03-302.93v60.76m-26.7-30.52h53.54m-42.27 14.68 15.41-14.65.02-.02.01-.01 15.56-14.79"/><path d="m249.83 154.94-15.24-14.49-.02-.02-.03-.03-15.71-14.94m-2.98 228.24v60.76m-26.7-30.52h53.55m-42.28 14.68 15.42-14.65.01-.01.02-.02 15.56-14.79"/><path d="m231.1 398.48-15.25-14.5-.01-.01-.03-.03-15.71-14.94"/></g></g><path d="m0 0h850.394v850.394h-850.394z"/></g></svg>

<svg xmlns="http://www.w3.org/2000/svg" width="850.394" height="850.394" viewBox="0 0 850.394 850.394" overflow="visible"><path d="M423.33 554.97a12.95 12.95 0 0 1-8.5-3.79 13.025 13.025 0 0 1-3.81-9.21v-78.64c.46.01.92.01 1.38.01 8.36 0 16.59-.59 24.64-1.729v80.359c0 7.19-5.83 13.021-13.01 13.021-.23-.001-.47-.011-.7-.021z" fill="#7a7878"/><path d="M437.04 276.82v184.79a175.696 175.696 0 0 1-24.64 1.729c-.46 0-.92 0-1.38-.01V276.82c0-7.18 5.82-13.01 13.01-13.01a13.007 13.007 0 0 1 13.01 13.01z" fill="#7a7878"/><path d="M538.34 167.5c20.08 20.87 35.021 46.72 42.78 75.51 3.92 14.54 6.01 29.83 6.01 45.6 0 5.32-.24 10.57-.7 15.77-2.76 30.86-13.55 59.42-30.26 83.56a175.58 175.58 0 0 1-48.68 47.28c-20.84 13.55-44.75 22.771-70.45 26.391V276.82c0-3.59-1.46-6.84-3.81-9.2a13.003 13.003 0 0 0-9.201-3.81c-7.19 0-13.01 5.83-13.01 13.01v114.99h-1.05c-5.44 20.75-16.83 44.53-39.66 66.42-32.19-7.95-60.86-24.841-83.23-47.871-24.21-24.92-41.06-57.02-47.02-92.82-1.57-9.41-2.39-19.07-2.39-28.93 0-13 1.42-25.66 4.11-37.85 8.12-36.76 27.81-69.17 55.06-93.21a174.483 174.483 0 0 1 53.26-32.23c19.35-7.39 40.35-11.44 62.3-11.44 7.29 0 14.47.45 21.52 1.31 19.98 2.46 38.91 8.28 56.21 16.89A174.938 174.938 0 0 1 538.34 167.5z" fill="#fbee34"/><g fill="none" stroke="#231f20"><path d="M434.7 238.02s-2.09-62.47 55.43-105.94c16.64-12.57 38.271-23.56 66.39-30.98M453.53 251.1s17.12-59.8 84.81-83.6c19.79-6.96 43.91-10.84 73.19-9.25M466.93 263.52s46.88-37.85 114.19-20.51c21.09 5.42 44.18 16.27 68.47 35.39M467.83 286.44s58.57-22.52 118.6 17.94c17.21 11.59 34.54 28.37 50.65 52.34M464.33 300.29s65.67 14.49 91.84 87.65c6.36 17.77 10.38 39 10.57 64.33M446.99 315.29s62.16 36.39 60.5 119.93c-.34 16.79-3.26 35.48-9.771 56.17M409.97 391.81c-5.44 20.75-16.83 44.53-39.66 66.42-13.03 12.5-29.78 24.38-51.28 34.739M399.25 313.31s-18.39 79.07-112.17 97.05c-12.3 2.36-25.91 3.67-40.94 3.61M385.25 301.57s-59.41 53.13-145.19 15.97c-12.16-5.26-24.85-12.34-37.98-21.64M383.21 278.73s-71.72 31.8-141.43-27.97c-10.51-9.02-20.98-20.11-31.14-33.71M387.57 259.05s-70.75-18.84-90.73-101.5c-3.83-15.8-5.79-33.95-5.05-54.74M405.54 244.81s-59.13-38.12-55.44-119.49c.79-17.52 4.49-37.05 12.32-58.62M418.65 236.95s-25.33-59.35 15.27-121.76c10.92-16.78 26.6-33.79 48.83-49.92" stroke-width="13.224" stroke-dasharray="19.836"/><path stroke-width="14" d="M423.33 551.46v231.63M437.04 461.61v80.359c0 7.19-5.83 13.021-13.01 13.021-.23 0-.47-.01-.7-.021a12.95 12.95 0 0 1-8.5-3.79 13.025 13.025 0 0 1-3.81-9.21V276.82c0-7.18 5.82-13.01 13.01-13.01a13.007 13.007 0 0 1 13.011 13.01v184.79z"/><path stroke-width="6.612" stroke-linecap="round" stroke-linejoin="round" d="M625.8 92.53V153.29M599.1 122.77h53.55M610.37 137.45l15.42-14.66.01-.01.01-.01 15.57-14.8"/><path stroke-width="6.612" stroke-linecap="round" stroke-linejoin="round" d="M641.05 137.31l-15.25-14.5-.01-.02-.03-.02-15.71-14.94M610.38 428.04v30.5M610.38 397.78v30.25M610.39 428.03h26.83M583.68 428.03h26.7M594.95 442.71l15.41-14.65.02-.02v-.01h.01l15.56-14.8"/><path stroke-width="6.612" stroke-linecap="round" stroke-linejoin="round" d="M625.62 442.57l-15.24-14.49-.02-.02-.03-.03-15.71-14.94M234.59 110.16v60.76M207.89 140.4h53.54M219.16 155.08l15.41-14.65.02-.02.01-.01 15.56-14.79"/><path stroke-width="6.612" stroke-linecap="round" stroke-linejoin="round" d="M249.83 154.94l-15.24-14.49-.02-.02-.03-.03-15.71-14.94M215.85 353.7v60.76M189.15 383.94h53.55M200.42 398.62l15.42-14.65.01-.01.02-.02 15.56-14.79"/><path stroke-width="6.612" stroke-linecap="round" stroke-linejoin="round" d="M231.1 398.48l-15.25-14.5-.01-.01-.03-.03L200.1 369"/></g><path fill="none" d="M0 0h850.394v850.394H0z"/></svg>
